48x48/apps/k4dirstat.svg

<svg xmlns="http://www.w3.org/2000/svg" width="48" height="48" version="1">
 <rect fill="#ba9e7b" width="40" height="40" x="4" y="4" rx="20" ry="20"/>
 <path style="opacity:0.2" d="M 24,9 C 15.136,9 8,16.136 8,25 c 0,8.864 7.136,16 16,16 l 0,-4 A 12,12 0 0 1 12,25 12,12 0 0 1 24,13 l 0,-4 z"/>
 <path fill="#fff" d="m24 8c-8.864 0-16 7.136-16 16s7.136 16 16 16v-4a12 12 0 0 1 -12 -12 12 12 0 0 1 12 -12v-4z"/>
 <path fill="#fff" opacity=".2" d="m24 4c-10.901 0-19.688 8.637-19.969 19.469 0.5339-10.597 9.235-18.969 19.969-18.969s19.435 8.372 19.969 18.969c-0.281-10.832-9.068-19.469-19.969-19.469z"/>
 <path opacity=".2" d="m4.0117 24.5c-0.0041 0.167-0.0117 0.332-0.0117 0.5 0 11.08 8.92 20 20 20s20-8.92 20-20c0-0.168-0.008-0.333-0.012-0.5-0.264 10.846-9.076 19.5-19.988 19.5s-19.724-8.654-19.988-19.5z"/>
 <path fill="#fff" opacity=".5" d="m24 8v4a12 12 0 0 1 12 12 12 12 0 0 1 -12 12v4c8.864 0 16-7.136 16-16s-7.136-16-16-16z"/>
 <path style="opacity:0.2" d="m 32,25 c 0,4.4183 -3.5817,8 -8,8 -4.4183,0 -8,-3.5817 -8,-8 z"/>
 <path fill="#fff" d="m32 24c0 4.4183-3.5817 8-8 8s-8-3.5817-8-8z"/>
 <path fill="#fff" opacity=".5" d="m32 24c0-4.4183-3.5817-8-8-8s-8 3.5817-8 8z"/>
</svg>

<svg xmlns="http://www.w3.org/2000/svg" width="48" height="48" version="1"><rect fill="#ba9e7b" width="40" height="40" x="4" y="4" rx="20" ry="20"/><path style="opacity:.2" d="M24 9C15.136 9 8 16.136 8 25s7.136 16 16 16v-4a12 12 0 0 1-12-12 12 12 0 0 1 12-12V9z"/><path fill="#fff" d="M24 8C15.136 8 8 15.136 8 24s7.136 16 16 16v-4a12 12 0 0 1-12-12 12 12 0 0 1 12-12V8z"/><path fill="#fff" opacity=".2" d="M24 4C13.099 4 4.312 12.637 4.031 23.469 4.565 12.872 13.266 4.5 24 4.5s19.435 8.372 19.969 18.969C43.688 12.637 34.901 4 24 4z"/><path opacity=".2" d="M4.012 24.5c-.004.167-.012.332-.012.5 0 11.08 8.92 20 20 20s20-8.92 20-20c0-.168-.008-.333-.012-.5C43.724 35.346 34.912 44 24 44S4.276 35.346 4.012 24.5z"/><path fill="#fff" opacity=".5" d="M24 8v4a12 12 0 0 1 12 12 12 12 0 0 1-12 12v4c8.864 0 16-7.136 16-16S32.864 8 24 8z"/><path style="opacity:.2" d="M32 25a8 8 0 1 1-16 0z"/><path fill="#fff" d="M32 24a8 8 0 1 1-16 0z"/><path fill="#fff" opacity=".5" d="M32 24a8 8 0 1 0-16 0z"/></svg>
